X:1
T:There Is a Better World
T:There Is a Better World
T:John Hayhurst
T:John Lyth, 1870
T:Public Domain Courtesy of the Cyber Hymnal™
T:Public Domain Courtesy of the Cyber Hymnal™
C:John Hayhurst
Z:Public Domain
Z:Courtesy of the Cyber Hymnal™
%%score ( 1 2 ) ( 3 4 )
L:1/8
Q:1/4=110
M:4/4
K:C
V:1 treble 
V:2 treble 
V:3 bass 
V:4 bass 
V:1
 ([G,C][CE]) | [CG]2 [CG]2 [CG]2 (cB) | [CA]2 [Cc]2 [CG]4 | [DG]3 [DF] [CE]4 | %4
w: 1.~There *|is a bet- ter *|world, they say|O so bright!|
w: 2.~No *|clouds e’er pass a- *|long that sky,|Hap- py land!|
w: 3.~And *|wick- ed things and *|beasts of prey,|Come not there!|
w: 4.~And *|though we’re sin- ners *|ev- ery one,|Je- sus died!|
 [B,F]3 [CE] [B,D]2 ([G,C][CE]) | [CG]2 [CG]2 [CG]2 (cB) | [CA]2 [Cc]2 [CG]4 | [CG]3 [CG] A4 | %8
w: O so bright! Where *|sin and woe are *|done a- way,|O so bright!|
w: Hap- py land! No *|tear drops glist- en *|in the eye,|Hap- py land!|
w: Come not there! And *|ruth- less death and *|fierce de- cay,|Come not there!|
w: Je- sus died! And *|though our crown of *|peace is gone,|Je- sus died!|
 [DFB]3 [DFB] !fermata![Ec]2 (cB) | [CA]2 [^CA]2 [DA]2 (BA) | [B,G]2 [B,G]2 [CG]2 (AG) | %11
w: O so bright! And *|mu- sic fills the *|balm- y air, And *|
w: Hap- py land! They *|drink the gush- ing *|streams of grace, And *|
w: Come not there! There *|all are ho- ly, *|all are good, But *|
w: Je- sus died! We *|may be cleansed from *|ev- ery stain, We *|
 [DF]2 [DF]2 [DF]2 [B,G]2 | [CE]2 [CE]2 [CE]2 ([G,C][CE]) | [CG]2 [CG]2 [CG]2 (cB) | %14
w: an- gels with bright|wings are there, And *|harps of gold and *|
w: gaze up- on the|Sav- ior’s face Whose *|bright- ness fills the *|
w: hearts un- washed in|Je- sus’ blood, And *|guilt- y sin- ners *|
w: may be crowned with|bliss a- gain, And *|in that land of *|
 [CA]2 [Cc]2 [CG]4 | [CG]3 [CG] A4 | [DFB]3 [DFB] !fermata![Ec]2 |] %17
w: man- sions fair,|O so bright!|O so bright!|
w: ho- ly place;|Hap- py land!|Hap- py land!|
w: un- re- newed,|Come not there!|Come not there!|
w: glo- ry reign;|Je- sus died!|Je- sus died!|
V:2
 x2 | x6 C2 | x8 | x8 | x8 | x6 C2 | x8 | x4 (C2 F2) | x6 D2 | x6 B,2 | x6 A,2 | x8 | x8 | x6 C2 | %14
 x8 | x4 (C2 F2) | x6 |] %17
V:3
 (E,G,) | [C,E,]2 [C,E,]2 [C,E,]2 E,2 | [F,,F,]2 [A,,F,]2 [C,E,]4 | [B,,G,]3 [B,,G,] G,4 | %4
 [D,G,]3 [C,G,] [G,,G,]2 (E,G,) | [C,E,]2 [C,E,]2 [C,E,]2 E,2 | [F,,F,]2 [A,,F,]2 [C,E,]4 | %7
 [E,G,]3 [E,G,] F,4 | [G,,G,]3 [G,,G,] !fermata![C,G,]2 [E,^G,]2 | %9
 [F,A,]2 [E,G,]2 [D,F,]2 [^D,^F,]2 | [E,G,]2 [D,F,]2 [C,E,]2 [^C,E,]2 | %11
 [D,A,]2 [C,_A,]2 [B,,G,]2 [G,,G,]2 | [C,G,]2 [C,G,]2 [C,G,]2 (E,G,) | %13
 [C,E,]2 [C,E,]2 [C,E,]2 E,2 | [F,,F,]2 [A,,F,]2 [C,E,]4 | [E,G,]3 [E,G,] F,4 | %16
 [G,,G,]3 [G,,G,] [C,G,]2 |] %17
V:4
 C,2 | x6 (A,,G,,) | x8 | x4 (C,2 E,2) | x6 C,2 | x6 (A,,G,,) | x8 | x4 (F,2 D,2) | x8 | x8 | x8 | %11
 x8 | x6 C,2 | x6 (A,,G,,) | x8 | x4 (F,2 D,2) | x6 |] %17

